images/icons/youtube.svg

<svg width="24" height="17" viewBox="0 0 24 17" fill="none" xmlns="http://www.w3.org/2000/svg">
<path d="M23.0391 3.35938C22.8516 1.69922 22.4531 1.21875 22.1758 0.992188C21.7305 0.640625 20.9219 0.515625 19.8438 0.441406C18.1133 0.324219 15.1719 0.25 12 0.25C8.82031 0.25 5.88672 0.316406 4.15625 0.441406C3.07812 0.515625 2.26953 0.640625 1.82422 0.992188C1.54687 1.21875 1.15625 1.69922 0.960938 3.35938C0.679688 5.75 0.679688 11.2031 0.960938 13.5977C1.15625 15.2539 1.54687 15.7383 1.82422 15.9648C2.26953 16.3125 3.07812 16.4375 4.15625 16.5117C5.88672 16.6289 8.82031 16.707 12 16.707C15.1797 16.707 18.1133 16.6289 19.8438 16.5117C20.9219 16.4375 21.7305 16.3125 22.1758 15.9648C22.4531 15.7461 22.8438 15.2539 23.0391 13.5977C23.3203 11.2031 23.3203 5.75 23.0391 3.35938ZM9.28125 12.0547V4.89453L16.0703 8.46875L9.28125 12.0547Z" fill="white"/>
</svg>

<svg width="24" height="17" fill="none" xmlns="http://www.w3.org/2000/svg"><path d="M23.04 3.36c-.188-1.66-.587-2.141-.864-2.368-.445-.351-1.254-.476-2.332-.55C18.114.323 15.172.25 12 .25c-3.18 0-6.113.066-7.844.191-1.078.075-1.886.2-2.332.551-.277.227-.668.707-.863 2.367C.68 5.75.68 11.203.96 13.598c.195 1.656.586 2.14.863 2.367.446.348 1.254.473 2.332.547 1.73.117 4.664.195 7.844.195 3.18 0 6.113-.078 7.844-.195 1.078-.075 1.886-.2 2.332-.547.277-.219.668-.711.863-2.367.281-2.395.281-7.848 0-10.239zM9.28 12.054v-7.16l6.79 3.574-6.79 3.586z" fill="#fff"/></svg>
